X: 22
T: Tu er hu te jiaxiang
%%abc-version 2.0
%%abcx-abcm2ps-target-version 5.9.1 (29 Sep 2008)
%%abc-creator hum2abc beta
%%abcx-conversion-date 2013/10/02 07:44:27
%%abc-edited-by Helmut Schaffrath
%%humdrum-veritas 769840973
%%humdrum-veritas-data 1682542258
%%continueall 1
%%barnumbers 0
L: 1/8
M: 4/4
K: Ab
e2e fA2A3/ F/ [I:setbarnb 1]| 
E> A F E2<e2c | 
e2e Be2f a | 
e> f e FA4 | 
E2E FA2A A | 
F A c c B ce2 | 
A2B c A B/ c/ A F | 
E E/ F/ E CE4 |]  



